X:1
T:Bellezze di Laura-Lauretta mia
T:Giovanni Stefani
T:Source : Affetti amorosi-Canzonette ad une voce sola---Venetia---A.Vincenti---1621. Editor : André Vierendeels (18/11/15).
T:Notes : Original clefs : C4, F4 Editorial accidentals above the staff Note values have been halved Alfabetto et intavolatura per chitarra Spagnola Terza impressione (first print : 1618) "Queste parole si possono cantar sopra l'aria della Fulia" 
T:Lauretta mia-Bellezze di Laura
C:Giovanni Stefani
%%score 1 { ( 2 3 ) | 4 }
L:1/8
Q:1/4=80
M:3/4
K:F
V:1 treble-8 nm="Tenor" snm="T"
V:2 treble nm="BC" snm="BC"
V:3 treble 
V:4 bass 
V:1
 d2 B2 A2 | GF GA B2- | Bc A3 A | G4 G2 | A2 B2 c2 | dc de f2- | f2 _e4 | d2 c3 c | B4 z2 | %9
w: Lau- ret- ta|mi- * * * a|_ quan- do m'ac-|ce- se,|quel vi- vo|rag- * * * *|* gio|di tua bel-|ta,|
w: Ohi- me che|lam- * * * pi|_ di tuoi bei|lu- mi,|a que- sti|miei _ _ _ _|_ pi-|ac- que- ro|si,|
w: Ma quan- d'io|vid- * * * di|_ di bel- la|ma- no,|la pu- ra|ne- * * * *|* ve|che m'in- fiam-|mo,|
w: E quan- do|io _ scor _ si|_ muo- ver il|pas- so,|o star- s'im-|mo- * * * *|* ro|quel va- go|pie,|
w: Boc- ca di|ro- * * * se|_ por- ta del|ri- so,|chio- me, ca-|te- * * * *|* ne|di ser- vi-|tu,|
 c2 A2 G2 | AG AB c2 | A4 z2 | d2 BA Bc | d3 e ^c2 | d6 | d2 B2 A2 | A2 A3 A | A4 A2 | G6 |] %19
w: quan- d'un tuo|sguar- * * * *|do|al cor _ _ _|_ mi sce-|se,|io re- stai|pri- vo di|li- ber-|ta.|
w: che ben che|ver- * * * si-|no|fon- ta- * * *|* n'e fiu-|mi,|a- man lo|stra- le, che|gli fe-|ri.|
w: ahi ch'u- sar|for- * * * *|za|pen- sier _ _ _|_ su va-|no,|che d'è me|l'al- ma se|ne vo-|lo.|
w: per far si'un'|au- * * * *|ra,|per far- * * *|* si'un sas-|so,|lo spir- to'e'l|co- re par-|tir da|me.|
w: co- si m'ha-|ve- * * * *|te|da me _ _ _|_ di- vi-|so,|che sta- re'in|vi- ta non|spe- ro|piu.|
V:2
 B4 A2 | B6 | G4 ^F2 | G6 | A2 B2 A2 | F6 | G6 | B2 A4 | F4 z2 | A4 c2 | c6 | c4 z2 | B6 | %13
 d2 G2 A2 | A6 | A2 B2 c2 | c2 c2 A2 | G4 ^F2 | G6 |] %19
V:3
 D4 ^F2 | G6 | E2 D4 | D6 | ^F2 D2 C2 | D6 | B,6 | G2 C4 | D4 z2 | F4 E2 | A6 | F4 z2 | D6 | %13
 G2 D2 E2 | ^F6 | ^F2 D2 A2 | F2 _E4 | D6 | D6 |] %19
V:4
 G,,2 G,,2 D,2 |"^b" G,,6 | C,2 D,4 | G,,4 G,,2 | D,2 G,2 F,2 | B,6 | _E,6 | _E,2 F,2 F,,2 | %8
 B,,4 z2 | F,,2 F,,2 C,2 | F,,6 | F,,4 z2 | G,,6- | G,,4 A,,2 | D,6 | D,2 G,2 F,2 | _E,2 C,3 C, | %17
 D,4 D,2 | G,,6 |] %19

